Numix-Circle/48x48/apps/gnome-power-manager.svg

<?xml version="1.0" encoding="UTF-8" standalone="no"?>
<svg
   xmlns:dc="http://purl.org/dc/elements/1.1/"
   xmlns:cc="http://creativecommons.org/ns#"
   xmlns:rdf="http://www.w3.org/1999/02/22-rdf-syntax-ns#"
   xmlns:svg="http://www.w3.org/2000/svg"
   xmlns="http://www.w3.org/2000/svg"
   xmlns:xlink="http://www.w3.org/1999/xlink"
   xmlns:sodipodi="http://sodipodi.sourceforge.net/DTD/sodipodi-0.dtd"
   xmlns:inkscape="http://www.inkscape.org/namespaces/inkscape"
   width="48"
   viewBox="0 0 13.546667 13.546667"
   height="48"
   id="svg2"
   version="1.1"
   inkscape:version="0.91 r13725"
   sodipodi:docname="xfpm-ac-adapter.svg">
  <metadata
     id="metadata331">
    <rdf:RDF>
      <cc:Work
         rdf:about="">
        <dc:format>image/svg+xml</dc:format>
        <dc:type
           rdf:resource="http://purl.org/dc/dcmitype/StillImage" />
        <dc:title />
      </cc:Work>
    </rdf:RDF>
  </metadata>
  <sodipodi:namedview
     pagecolor="#ffffff"
     bordercolor="#666666"
     borderopacity="1"
     objecttolerance="10"
     gridtolerance="10"
     guidetolerance="10"
     inkscape:pageopacity="0"
     inkscape:pageshadow="2"
     inkscape:window-width="1920"
     inkscape:window-height="1023"
     id="namedview329"
     showgrid="false"
     inkscape:zoom="8.8690661"
     inkscape:cx="30.721768"
     inkscape:cy="18.89989"
     inkscape:window-x="0"
     inkscape:window-y="28"
     inkscape:window-maximized="1"
     inkscape:current-layer="layer3">
    <inkscape:grid
       type="xygrid"
       id="grid3308" />
  </sodipodi:namedview>
  <defs
     id="defs4">
    <linearGradient
       inkscape:collect="always"
       xlink:href="#linearGradient3765-5-8-9"
       id="linearGradient5371"
       gradientUnits="userSpaceOnUse"
       x1="-25.499998"
       y1="15"
       x2="-25.499998"
       y2="11" />
    <linearGradient
       id="linearGradient3765-5-8-9">
      <stop
         style="stop-color:#46baa7;stop-opacity:1;"
         offset="0"
         id="stop3767-6-1-8" />
      <stop
         style="stop-color:#51c1af;stop-opacity:1;"
         offset="1"
         id="stop3769-8-1-4" />
    </linearGradient>
  </defs>
  <g
     inkscape:groupmode="layer"
     id="layer1"
     inkscape:label="Shadow"
     sodipodi:insensitive="true">
    <path
       style="opacity:0.05;fill:#000000;fill-opacity:1;stroke:none"
       d="M 25,2 C 12.297451,2 2,12.297451 2,25 2,31.367153 4.6007106,37.116628 8.78125,41.28125 12.865755,44.99361 18.29568,47.25 24.25,47.25 c 12.702549,0 23,-10.297451 23,-23 0,-5.95432 -2.25639,-11.384245 -5.96875,-15.46875 C 37.116628,4.6007105 31.367153,2 25,2 z M 41.28125,8.78125 C 45.135604,12.894061 47.5,18.418655 47.5,24.5 c 0,12.702549 -10.297451,23 -23,23 C 18.418655,47.5 12.894061,45.135604 8.78125,41.28125 12.940939,45.4251 18.664604,48 25,48 37.702549,48 48,37.702549 48,25 48,18.664604 45.4251,12.940939 41.28125,8.78125 z"
       transform="scale(0.28222223,0.28222223)"
       id="path3978"
       inkscape:connector-curvature="0" />
    <path
       style="opacity:0.1;fill:#000000;fill-opacity:1;stroke:none"
       d="M 41.28125,8.78125 C 44.99361,12.865755 47.25,18.29568 47.25,24.25 c 0,12.702549 -10.297451,23 -23,23 -5.95432,0 -11.384245,-2.25639 -15.46875,-5.96875 C 12.894061,45.135604 18.418655,47.5 24.5,47.5 c 12.702549,0 23,-10.297451 23,-23 0,-6.081345 -2.364396,-11.605939 -6.21875,-15.71875 z"
       transform="scale(0.28222223,0.28222223)"
       id="path3976"
       inkscape:connector-curvature="0" />
    <path
       transform="matrix(4.3274074,0,0,3.2455556,117.19278,-35.348334)"
       d="m -24,13 a 1.5,2 0 1 1 -3,0 1.5,2 0 1 1 3,0 z"
       sodipodi:ry="2"
       sodipodi:rx="1.5"
       sodipodi:cy="13"
       sodipodi:cx="-25.5"
       id="path3952"
       style="opacity:0.2;fill:#000000;fill-opacity:1;stroke:none"
       sodipodi:type="arc" />
  </g>
  <g
     inkscape:groupmode="layer"
     id="layer2"
     inkscape:label="Base">
    <path
       sodipodi:type="arc"
       style="opacity:1;fill:url(#linearGradient5371);fill-opacity:1.0;stroke:none"
       id="path3942"
       sodipodi:cx="-25.5"
       sodipodi:cy="13"
       sodipodi:rx="1.5"
       sodipodi:ry="2"
       d="m -24,13 a 1.5,2 0 1 1 -3,0 1.5,2 0 1 1 3,0 z"
       transform="matrix(4.3274075,0,0,3.2455556,117.12222,-35.418889)" />
    <path
       style="opacity:0.1;fill:#000000;fill-opacity:1;stroke:none"
       d="M 40.03125 7.53125 C 43.74361 11.615755 46 17.04568 46 23 C 46 35.702549 35.702549 46 23 46 C 17.04568 46 11.615755 43.74361 7.53125 40.03125 C 11.709416 44.322508 17.537578 47 24 47 C 36.702549 47 47 36.702549 47 24 C 47 17.537578 44.322508 11.709416 40.03125 7.53125 z "
       id="path4027"
       transform="scale(0.28222223,0.28222223)" />
  </g>
  <g
     inkscape:groupmode="layer"
     id="layer3"
     inkscape:label="Symbol">
    <rect
       id="rect6696"
       rx="0.28222224"
       y="2.2572134"
       x="5.6444445"
       height="1.0473267"
       width="2.8222222"
       style="opacity:0.1;fill:#000000;fill-opacity:1"
       ry="0.28222224" />
    <path
       id="path6694"
       d="m 5.0800001,10.724445 3.9511112,0 0,-4.7977779 -3.9511112,2.8222223 z"
       inkscape:connector-curvature="0"
       style="fill:#000000;fill-opacity:1;opacity:0.1" />
    <rect
       id="rect6692"
       ry="0.53142446"
       rx="0.50800002"
       y="3.3866665"
       x="4.5155559"
       height="7.9022226"
       width="5.0799999"
       style="fill:none;stroke:#000000;stroke-width:0.56444448000000003;stroke-opacity:1;opacity:0.1" />
    <g
       id="Layer_1_1_"
       transform="matrix(0.02315104,0,0,0.02315104,0.85426011,0.84828994)" />
    <g
       id="Layer_1_1_-8"
       transform="matrix(0.02315104,0,0,0.02315104,17.950949,0.34726084)" />
    <g
       id="g3012"
       transform="translate(-17.317044,0.17132354)" />
    <g
       id="g3012-2"
       transform="translate(-1.401132,0.05067354)" />
    <g
       id="g3012-8"
       transform="translate(-17.317044,0.17132354)" />
    <g
       id="g3012-2-6"
       transform="translate(-1.401132,0.05067354)" />
    <path
       style="font-size:medium;font-style:normal;font-variant:normal;font-weight:normal;font-stretch:normal;text-indent:0;text-align:start;text-decoration:none;line-height:normal;letter-spacing:normal;word-spacing:normal;text-transform:none;direction:ltr;block-progression:tb;writing-mode:lr-tb;text-anchor:start;baseline-shift:baseline;color:#000000;fill:#f9f9f9;fill-opacity:1;stroke:none;stroke-width:0.56444448;marker:none;visibility:visible;display:inline;overflow:visible;enable-background:accumulate;font-family:Sans;-inkscape-font-specification:Sans"
       d="m 4.75,2.8125 c -0.4398859,0 -0.8125,0.373298 -0.8125,0.8125 l 0,6.84375 c 0,0.439202 0.3726141,0.8125 0.8125,0.8125 l 4.0625,0 c 0.4398859,0 0.78125,-0.373298 0.78125,-0.8125 l 0,-6.84375 c 0,-0.439202 -0.3413641,-0.8125 -0.78125,-0.8125 l -4.0625,0 z m 0,0.5625 4.0625,0 c 0.1229781,0 0.21875,0.1003837 0.21875,0.25 l 0,6.84375 c 0,0.149616 -0.095772,0.25 -0.21875,0.25 l -4.0625,0 c -0.1229781,0 -0.25,-0.100384 -0.25,-0.25 L 4.5,3.625 c 0,-0.1496163 0.1270219,-0.25 0.25,-0.25 z"
       id="rect6591"
       inkscape:connector-curvature="0" />
    <rect
       ry="0.28222224"
       style="fill:#f9f9f9"
       width="2.8222222"
       height="1.0473267"
       x="5.3622222"
       y="1.9749304"
       rx="0.28222224"
       id="rect6593" />
    <path
       style="fill:#e3e3d6"
       inkscape:connector-curvature="0"
       d="m 4.7977776,10.442222 3.9511112,0 0,-4.7977776 -3.9511112,2.8222223 z"
       id="path6595" />
  </g>
</svg>

<svg xmlns="http://www.w3.org/2000/svg" width="48" viewBox="0 0 13.546667 13.546667" height="48">
 <defs>
  <linearGradient id="linearGradient5371" gradientUnits="userSpaceOnUse" y1="15" x2="0" y2="11">
   <stop style="stop-color:#46baa7;stop-opacity:1"/>
   <stop offset="1" style="stop-color:#51c1af;stop-opacity:1"/>
  </linearGradient>
 </defs>
 <g>
  <path d="m 25 2 c -12.703 0 -23 10.297 -23 23 0 6.367 2.601 12.12 6.781 16.281 4.085 3.712 9.514 5.969 15.469 5.969 c 12.703 0 23 -10.297 23 -23 0 -5.954 -2.256 -11.384 -5.969 -15.469 c -4.165 -4.181 -9.914 -6.781 -16.281 -6.781 z m 16.281 6.781 c 3.854 4.113 6.219 9.637 6.219 15.719 c 0 12.703 -10.297 23 -23 23 c -6.081 0 -11.606 -2.364 -15.719 -6.219 4.16 4.144 9.883 6.719 16.219 6.719 12.703 0 23 -10.297 23 -23 0 -6.335 -2.575 -12.06 -6.719 -16.219 z" transform="scale(0.28222223,0.28222223)" style="fill:#000;opacity:0.05;fill-opacity:1;stroke:none"/>
  <path d="m 41.28 8.781 c 3.712 4.085 5.969 9.514 5.969 15.469 c 0 12.703 -10.297 23 -23 23 -5.954 0 -11.384 -2.256 -15.469 -5.969 c 4.113 3.854 9.637 6.219 15.719 6.219 c 12.703 0 23 -10.297 23 -23 0 -6.081 -2.364 -11.606 -6.219 -15.719 z" transform="scale(0.28222223,0.28222223)" style="fill:#000;opacity:0.1;fill-opacity:1;stroke:none"/>
  <path transform="matrix(4.3274074,0,0,3.2455556,117.19278,-35.348334)" d="m -24 13 a 1.5 2 0 1 1 -3 0 1.5 2 0 1 1 3 0 z" style="fill:#000;opacity:0.2;fill-opacity:1;stroke:none"/>
 </g>
 <g>
  <path d="m -24 13 a 1.5 2 0 1 1 -3 0 1.5 2 0 1 1 3 0 z" transform="matrix(4.3274075,0,0,3.2455556,117.12222,-35.418889)" style="fill:url(#linearGradient5371);opacity:1;fill-opacity:1;stroke:none"/>
  <path d="m 40.03 7.531 c 3.712 4.085 5.969 9.514 5.969 15.469 c 0 12.703 -10.297 23 -23 23 c -5.954 0 -11.384 -2.256 -15.469 -5.969 c 4.178 4.291 10.01 6.969 16.469 6.969 c 12.703 0 23 -10.297 23 -23 c 0 -6.462 -2.677 -12.291 -6.969 -16.469 z" transform="scale(0.28222223,0.28222223)" style="fill:#000;opacity:0.1;fill-opacity:1;stroke:none"/>
 </g>
 <g>
  <rect rx="0.282" y="2.257" x="5.644" height="1.047" width="2.822" style="fill:#000;opacity:0.1;fill-opacity:1"/>
  <path d="m 5.08 10.724 3.951 0 0 -4.798 -3.951 2.822 z" style="fill:#000;opacity:0.1;fill-opacity:1"/>
  <rect ry="0.531" rx="0.508" y="3.387" x="4.516" height="7.902" width="5.08" style="stroke-opacity:1;fill:none;opacity:0.1;stroke:#000;stroke-width:0.564"/>
  <path d="m 4.75 2.813 c -0.44 0 -0.813 0.373 -0.813 0.813 l 0 6.844 c 0 0.439 0.373 0.813 0.813 0.813 l 4.063 0 c 0.44 0 0.781 -0.373 0.781 -0.813 l 0 -6.844 c 0 -0.439 -0.341 -0.813 -0.781 -0.813 l -4.063 0 z m 0 0.563 4.063 0 c 0.123 0 0.219 0.1 0.219 0.25 l 0 6.844 c 0 0.15 -0.096 0.25 -0.219 0.25 l -4.063 0 c -0.123 0 -0.25 -0.1 -0.25 -0.25 l 0 -6.844 c 0 -0.15 0.127 -0.25 0.25 -0.25 z" style="visibility:visible;fill:#f9f9f9;fill-opacity:1;stroke:none;display:inline;color:#000"/>
  <rect width="2.822" height="1.047" x="5.362" y="1.975" rx="0.282" style="fill:#f9f9f9"/>
  <path d="m 4.798 10.442 3.951 0 0 -4.798 -3.951 2.822 z" style="fill:#e3e3d6"/>
 </g>
</svg>
